X:1
T:Title
%%score { ( 1 4 ) | ( 2 3 ) }
L:1/8
M:4/4
K:Eb
V:1 treble nm="Grand Piano"
V:4 treble 
V:2 bass 
V:3 bass 
V:1
 z4 z2[Q:1/4=100] EF | G3 G AGFE | [Cc]2 [Dc]2 [EB]2 [EG]2 | z4 z2 .F2 | G4 z2 EF | G3 G AGFE | %6
 [Cc]2 [Dc]2 B2 G2 | z4 B2 =A2 | [DB]6 B2 | d3 G A2 [Dc]2 | z4 z2 G2 | [Ec]3 E E2 F2 | G4 z2 A2 | %13
 G3 F E3 G | [GB]2 [Ee]2[K:bass][K:treble] z4 | [EGB]3 [G,CE] [B,EG]2 [A,DF]2 | %16
[M:3/4] [G,B,E]4 z2 |[M:1/4] E>G |[M:4/4] B6 z2 | G6 z2 | F3 B B2 =A2 |[M:3/4] B6 |[M:1/4] B>B | %23
[M:4/4] e2- [Ee-]>[Fe-] [Ge-][Be] B>B | c2- [Cc-]>[Dc-] [Ec-][Dc]cc | B3 [Ge] [Fe]2 [Fd]2 | %26
[M:3/4] [Ge]4 z2 |] %27
V:2
 z4 z2 [E,B,]-[E,A,B,] | [E,B,E]3 [E,B,E] CB,[E,B,]-[E,G,B,] | [A,,A,]2 [A,,A,]2 [E,G,]2 [E,B,]2 | %3
 [B,,B,]3 [B,,B,] z E B,,2 | [E,B,E]4 z2 [E,B,]-[E,A,B,] | [E,B,E]3 [E,B,E] CB,[E,B,]-[E,G,B,] | %6
 [A,,A,]2 [A,,A,]2 [E,G,E]2 [E,B,E]2 | [F,B,D]3 [F,DF] .[F,DF]2 .[F,CF]2 | %8
 [B,,B,]6[K:treble] [B,DF]2 | [B,FA]3 [B,E] [B,DF]2[K:bass] [B,,A,]2 | %10
 [E,G,E]3 [E,CE] [E,B,E]2 .[E,G,E]2 | [C,G,]3 [C,G,C] [A,C]2 [A,CD]2 | [G,=B,D]4 z2 [F,B,D]2 | %13
 [E,B,E]3 [F,A,D] [G,B,]3 [E,B,E] | .[E,G,]2 .[C,G,]2 [A,,A,]2 =A,,2 | B,,3 C, B,,2 B,,2 | %16
[M:3/4] E,4 z2 |[M:1/4] E,>E, |[M:4/4] z2 B,>B, CB, G,>F, | z2 G,>G, A,G, [E,B,E]>[E,B,E] | %20
 [F,B,D]3 [F,DF] [F,DF]2 [F,CE]2 |[M:3/4] z2 F,>G, A,F, |[M:1/4][K:treble] [B,EG]>[B,DF] | %23
[M:4/4][K:bass] B,2 G,>A, B,G, [E,G,E]>[E,G,E] | A,2 A,>B,[K:treble] CB,[A,CE][A,DF] | %25
 [G,EG]3[K:bass] [C,C] [A,,C]2 [B,,B,]2 |[M:3/4] [E,B,]4 z2 |] %27
V:3
 z4 z2 .G,2 | z4 [E,E]2 .A,2 | x8 | z4 [B,,F,]2 z2 | z4 z2 .G,2 | z4 [E,E]2 .A,2 | x8 | x8 | %8
 x6[K:treble] x2 | x6[K:bass] x2 | x8 | x8 | x8 | x8 | x8 | x8 |[M:3/4] x6 |[M:1/4] x2 | %18
[M:4/4] E,6 z2 | E,6 z2 | x8 |[M:3/4] B,,6 |[M:1/4][K:treble] x2 |[M:4/4][K:bass] E,6 z2 | %24
 A,,6[K:treble] z2 | x3[K:bass] x5 |[M:3/4] x6 |] %27
V:4
 x8 | x8 | x8 | [DF]3 [DF] .[DB]2 [B,A]-[B,DA] | x8 | x8 | x8 | F3 B z G z E | x8 | x8 | %10
 B3 A G2 z D, | x8 | x8 | x8 | z D, z[K:bass] B,,[K:treble] [Ec]2 [E_Gc]2 | x8 |[M:3/4] x6 | %17
[M:1/4] x2 |[M:4/4] z2 G>G AG E>F | z2 B,>B, CB, G>G | x8 |[M:3/4] [B,D]2 D>E FD |[M:1/4] x2 | %23
[M:4/4] G2 z2 z4 | E2 z2 z4 | x8 |[M:3/4] x6 |] %27

